public/svgs/icons/snacks.svg

<svg fill="none" height="34" viewBox="0 0 28 34" width="28" xmlns="http://www.w3.org/2000/svg" xmlns:xlink="http://www.w3.org/1999/xlink"><clipPath id="a"><path d="m0 .56958h28v32.6704h-28z"/></clipPath><g clip-path="url(#a)" fill="#aa7a4e"><path d="m24.244.56958h-6.2896c-.8204 0-1.4854.66505-1.4854 1.48542 0 .82038.665 1.48543 1.4854 1.48543h6.2896c.8204 0 1.4855-.66505 1.4855-1.48543 0-.82037-.6651-1.48542-1.4855-1.48542z"/><path d="m27.7725 11.7929-3.0734-5.37516c-.0854-.15063-.2093-.27586-.359-.36287-.1497-.087-.3199-.13264-.493-.13226h-5.7455c-.1731-.00038-.3432.04526-.4929.13226-.1497.08701-.2736.21224-.359.36287l-3.0735 5.37516c-.1483.2595-.2267.5531-.2275.852v4.6213c1.2617.953 2.2846 2.186 2.9883 3.6018.7037 1.4159 1.0688 2.9759 1.0665 4.5569.0018 1.3653-.2705 2.7171-.8007 3.9753-.5302 1.2581-1.3076 2.397-2.2861 3.3492.4207.3196.9348.492 1.4631.4907h9.1892c.319.0006.635-.0617.9299-.1834.295-.1217.563-.3004.7888-.5257.2258-.2254.405-.4932.5272-.7879s.1851-.6106.1851-.9296v-18.1686c-.0008-.2989-.0792-.5925-.2275-.852z"/><path d="m7.77508 17.6497c-1.02104 0-2.03207.2011-2.97539.5918-.94331.3907-1.80046.9634-2.52244 1.6854s-1.294675 1.5791-1.685408 2.5224-.591842 1.9544-.591842 2.9754c0 2.0621.819143 4.0397 2.27725 5.4978 1.4581 1.4581 3.43575 2.2773 5.49783 2.2773 2.06207 0 4.03962-.8192 5.49772-2.2773 1.4582-1.4581 2.2773-3.4357 2.2773-5.4978 0-1.021-.2011-2.0321-.5918-2.9754-.3908-.9433-.9635-1.8004-1.6855-2.5224-.7219-.722-1.579-1.2947-2.5223-1.6854-.94336-.3907-1.95439-.5918-2.97542-.5918zm4.06822 6.3966-2.67648.9903c-.08957.0152-.18164.0026-.26388-.036-.08223-.0386-.15071-.1014-.19629-.1799-.0456-.0786-.06611-.1692-.05881-.2598.0073-.0905.04205-.1767.09964-.2469l2.18582-1.8111c.2046-.1207.4489-.1551.6789-.0957.2301.0594.4271.2078.5478.4124.1206.2047.1551.4489.0957.679-.0594.23-.2078.4271-.4124.5477zm-5.2414 2.4847-2.18577 1.8155c-.10154.0645-.21512.1079-.33384.1274-.11873.0195-.24018.0148-.35705-.0138s-.22669-.0806-.32295-.1528c-.09627-.0722-.17693-.1631-.23714-.2672-.06022-.1042-.09876-.2195-.11326-.3389-.01451-.1195-.00472-.2406.0288-.3562.03353-.1155.09006-.2231.16624-.3163.07618-.0931.17044-.1699.27706-.2256l2.67643-.9948c.08812-.0107.17743.005.25653.0453s.14442.1033.18753.1809.06209.1663.05451.2547c-.00759.0885-.0414.1726-.09709.2418zm-.23197-1.4944-2.67643-.9903c-.10662-.0557-.20088-.1325-.27706-.2256-.07618-.0932-.13271-.2007-.16624-.3163-.03352-.1156-.04331-.2367-.0288-.3562.0145-.1194.05299-.2347.1132-.3388.06022-.1042.14093-.1951.2372-.2673.09626-.0722.20608-.1242.32295-.1528s.23832-.0333.35705-.0138c.11872.0195.2323.0629.33384.1274l2.18577 1.8111c.0566.0697.09081.1548.09823.2443.00743.0895-.01229.1791-.05663.2572-.04433.078-.11119.1409-.19183.1804-.08064.0394-.17133.0536-.26018.0407zm2.39095-3.9031-.47286 2.8013c-.03126.0861-.08823.1605-.16325.2131s-.16443.0808-.25604.0808-.18101-.0282-.25603-.0808-.13205-.127-.1633-.2131l-.47281-2.8013c0-.1172.02306-.2332.0679-.3414.04483-.1083.11057-.2066.19341-.2895.08285-.0828.18118-.1485.28942-.1934.10824-.0448.22425-.0679.34141-.0679s.23318.0231.34142.0679c.10824.0449.20657.1106.28941.1934.08285.0829.14858.1812.19342.2895.04483.1082.0679.2242.0679.3414zm-1.78429 8.5824.47281-2.8013c.03125-.0861.08828-.1605.1633-.2131s.16442-.0808.25603-.0808.18102.0282.25604.0808.13199.127.16325.2131l.47286 2.8013c0 .1172-.02307.2332-.0679.3414-.04484.1083-.11057.2066-.19342.2895-.08284.0828-.18117.1485-.28941.1934-.10824.0448-.22426.0679-.34142.0679s-.23317-.0231-.34141-.0679c-.10824-.0449-.20657-.1106-.28942-.1934-.08284-.0829-.14858-.1812-.19341-.2895-.04484-.1082-.0679-.2242-.0679-.3414zm4.15741-1.3694-2.18575-1.8155c-.05759-.0703-.0924-.1564-.0997-.247-.0073-.0905.01322-.1811.05881-.2597.04558-.0786.11406-.1414.1963-.18.08223-.0386.1743-.0511.26387-.036l2.67647.9948c.1013.0597.1899.1389.2606.2328.0708.094.1224.201.1518.3149s.0361.2325.0196.349c-.0164.1165-.0556.2286-.1153.33-.0598.1013-.1389.1899-.2329.2607-.094.0707-.201.1223-.3149.1517s-.2325.0361-.349.0197c-.1164-.0165-.2286-.0557-.3299-.1154z"/></g></svg>

<svg width="28" height="34" viewBox="0 0 28 34" fill="none" xmlns="http://www.w3.org/2000/svg">
<g clip-path="url(#clip0_95_26)">
<path d="M24.244 0.56958H17.9544C17.134 0.56958 16.469 1.23463 16.469 2.055C16.469 2.87538 17.134 3.54043 17.9544 3.54043H24.244C25.0644 3.54043 25.7295 2.87538 25.7295 2.055C25.7295 1.23463 25.0644 0.56958 24.244 0.56958Z" fill="#AA7A4E"/>
<path d="M27.7725 11.7929L24.6991 6.41774C24.6137 6.26711 24.4898 6.14188 24.3401 6.05487C24.1904 5.96787 24.0202 5.92223 23.8471 5.92261H18.1016C17.9285 5.92223 17.7584 5.96787 17.6087 6.05487C17.459 6.14188 17.3351 6.26711 17.2497 6.41774L14.1762 11.7929C14.0279 12.0524 13.9495 12.346 13.9487 12.6449V17.2662C15.2104 18.2192 16.2333 19.4522 16.937 20.868C17.6407 22.2839 18.0058 23.8439 18.0035 25.4249C18.0053 26.7902 17.733 28.142 17.2028 29.4002C16.6726 30.6583 15.8952 31.7972 14.9167 32.7494C15.3374 33.069 15.8515 33.2414 16.3798 33.2401H25.569C25.888 33.2407 26.204 33.1784 26.4989 33.0567C26.7939 32.935 27.0619 32.7563 27.2877 32.531C27.5135 32.3056 27.6927 32.0378 27.8149 31.7431C27.9371 31.4484 28 31.1325 28 30.8135V12.6449C27.9992 12.346 27.9208 12.0524 27.7725 11.7929Z" fill="#AA7A4E"/>
<path d="M7.77508 17.6497C6.75404 17.6497 5.74301 17.8508 4.79969 18.2415C3.85638 18.6322 2.99923 19.2049 2.27725 19.9269C1.55527 20.6489 0.982575 21.506 0.591842 22.4493C0.201109 23.3926 0 24.4037 0 25.4247C0 27.4868 0.819143 29.4644 2.27725 30.9225C3.73535 32.3806 5.713 33.1998 7.77508 33.1998C9.83715 33.1998 11.8147 32.3806 13.2728 30.9225C14.731 29.4644 15.5501 27.4868 15.5501 25.4247C15.5501 24.4037 15.349 23.3926 14.9583 22.4493C14.5675 21.506 13.9948 20.6489 13.2728 19.9269C12.5509 19.2049 11.6938 18.6322 10.7505 18.2415C9.80714 17.8508 8.79611 17.6497 7.77508 17.6497ZM11.8433 24.0463L9.16682 25.0366C9.07725 25.0518 8.98518 25.0392 8.90294 25.0006C8.82071 24.962 8.75223 24.8992 8.70665 24.8207C8.66105 24.7421 8.64054 24.6515 8.64784 24.5609C8.65514 24.4704 8.68989 24.3842 8.74748 24.314L10.9333 22.5029C11.1379 22.3822 11.3822 22.3478 11.6122 22.4072C11.8423 22.4666 12.0393 22.615 12.16 22.8196C12.2806 23.0243 12.3151 23.2685 12.2557 23.4986C12.1963 23.7286 12.0479 23.9257 11.8433 24.0463ZM6.6019 26.531L4.41613 28.3465C4.31459 28.411 4.20101 28.4544 4.08229 28.4739C3.96356 28.4934 3.84211 28.4887 3.72524 28.4601C3.60837 28.4315 3.49855 28.3795 3.40229 28.3073C3.30602 28.2351 3.22536 28.1442 3.16515 28.0401C3.10493 27.9359 3.06639 27.8206 3.05189 27.7012C3.03738 27.5817 3.04717 27.4606 3.08069 27.345C3.11422 27.2295 3.17075 27.1219 3.24693 27.0287C3.32311 26.9356 3.41737 26.8588 3.52399 26.8031L6.20042 25.8083C6.28854 25.7976 6.37785 25.8133 6.45695 25.8536C6.53605 25.8939 6.60137 25.9569 6.64448 26.0345C6.68759 26.1121 6.70657 26.2008 6.69899 26.2892C6.6914 26.3777 6.65759 26.4618 6.6019 26.531ZM6.36993 25.0366L3.6935 24.0463C3.58688 23.9906 3.49262 23.9138 3.41644 23.8207C3.34026 23.7275 3.28373 23.62 3.2502 23.5044C3.21668 23.3888 3.20689 23.2677 3.2214 23.1482C3.2359 23.0288 3.27439 22.9135 3.3346 22.8094C3.39482 22.7052 3.47553 22.6143 3.5718 22.5421C3.66806 22.4699 3.77788 22.4179 3.89475 22.3893C4.01162 22.3607 4.13307 22.356 4.2518 22.3755C4.37052 22.395 4.4841 22.4384 4.58564 22.5029L6.77141 24.314C6.82801 24.3837 6.86222 24.4688 6.86964 24.5583C6.87707 24.6478 6.85735 24.7374 6.81301 24.8155C6.76868 24.8935 6.70182 24.9564 6.62118 24.9959C6.54054 25.0353 6.44985 25.0495 6.361 25.0366H6.36993ZM8.76088 21.1335L8.28802 23.9348C8.25676 24.0209 8.19979 24.0953 8.12477 24.1479C8.04975 24.2005 7.96034 24.2287 7.86873 24.2287C7.77712 24.2287 7.68772 24.2005 7.6127 24.1479C7.53768 24.0953 7.48065 24.0209 7.4494 23.9348L6.97659 21.1335C6.97659 21.0163 6.99965 20.9003 7.04449 20.7921C7.08932 20.6838 7.15506 20.5855 7.2379 20.5026C7.32075 20.4198 7.41908 20.3541 7.52732 20.3092C7.63556 20.2644 7.75157 20.2413 7.86873 20.2413C7.98589 20.2413 8.10191 20.2644 8.21015 20.3092C8.31839 20.3541 8.41672 20.4198 8.49956 20.5026C8.58241 20.5855 8.64814 20.6838 8.69298 20.7921C8.73781 20.9003 8.76088 21.0163 8.76088 21.1335ZM6.97659 29.7159L7.4494 26.9146C7.48065 26.8285 7.53768 26.7541 7.6127 26.7015C7.68772 26.6489 7.77712 26.6207 7.86873 26.6207C7.96034 26.6207 8.04975 26.6489 8.12477 26.7015C8.19979 26.7541 8.25676 26.8285 8.28802 26.9146L8.76088 29.7159C8.76088 29.8331 8.73781 29.9491 8.69298 30.0573C8.64814 30.1656 8.58241 30.2639 8.49956 30.3468C8.41672 30.4296 8.31839 30.4953 8.21015 30.5402C8.10191 30.585 7.98589 30.6081 7.86873 30.6081C7.75157 30.6081 7.63556 30.585 7.52732 30.5402C7.41908 30.4953 7.32075 30.4296 7.2379 30.3468C7.15506 30.2639 7.08932 30.1656 7.04449 30.0573C6.99965 29.9491 6.97659 29.8331 6.97659 29.7159ZM11.134 28.3465L8.94825 26.531C8.89066 26.4607 8.85585 26.3746 8.84855 26.284C8.84125 26.1935 8.86177 26.1029 8.90736 26.0243C8.95294 25.9457 9.02142 25.8829 9.10366 25.8443C9.18589 25.8057 9.27796 25.7932 9.36753 25.8083L12.044 26.8031C12.1453 26.8628 12.2339 26.942 12.3046 27.0359C12.3754 27.1299 12.427 27.2369 12.4564 27.3508C12.4858 27.4647 12.4925 27.5833 12.476 27.6998C12.4596 27.8163 12.4204 27.9284 12.3607 28.0298C12.3009 28.1311 12.2218 28.2197 12.1278 28.2905C12.0338 28.3612 11.9268 28.4128 11.8129 28.4422C11.699 28.4716 11.5804 28.4783 11.4639 28.4619C11.3475 28.4454 11.2353 28.4062 11.134 28.3465Z" fill="#AA7A4E"/>
</g>
<defs>
<clipPath id="clip0_95_26">
<rect width="28" height="32.6704" fill="white" transform="translate(0 0.56958)"/>
</clipPath>
</defs>
</svg>
